!! Isochronous pitch passage.
!! Bass-line.
!! From Harvey Babcock, Worlds Fair Rag, (from Trio)
!! 2/4 meter
**kern	**metpos
*M2/4	*M2/4
*tb8	*tb8
=1	=1
8AA-	1
8E-	3
8C	2
8C-	3
=2	=2
8BB-	1
8E-	3
8EE-	2
8E-	3
=3	=3
8AA-	1
8E-	3
8C	2
8C-	3
=4	=4
8BB-	1
8E-	3
8EE-	2
8E-	3
=5	=5
8AA-	1
8G-	3
8AA-	2
8G-	3
=6	=6
8D-	1
8F	3
8D-	2
8F	3
=7	=7
8FF	1
8F	3
8FF	2
8F	3
=8	=8
8BB-	1
8F	3
8BB-	2
8F	3
=9	=9
8Dn	1
8A-	3
8D	2
8A-	3
=10	=10
8EE-	1
8E-	3
8FF	2
8F	3
=11	=11
8BB-	1
8A-	3
8EE-	2
8G	3
=12	=12
8AA-	1
8E-	3
8AA-	2
8r	3
=13	=13
8E-	1
8G	3
8BB-	2
8G	3
=14	=14
8BBB-	1
8BB-	3
8C	2
8D	3
=15	=15
8E-	1
8G	3
8BB-	2
8G	3
=16	=16
8EE-	1
8G	3
8BB-	2
8G	3
=17	=17
8FF	1
8A-	3
8BB-	2
8A-	3
=18	=18
8D	1
8A-	3
8BB-	2
8A-	3
=19	=19
8EE-	1
8G	3
8GG	2
8GG-	3
=20	=20
8FF	1
8A-	3
8BB-	2
8A-	3
=21	=21
8EE-	1
8G	3
8BB-	2
8G	3
=22	=22
8BBB-	1
8BB-	3
8C	2
8D	3
=23	=23
8E-	1
8G	3
8BB-	2
8G	3
=24	=24
8E-	1
8G	3
8GG	2
8GG-	3
=25	=25
8FF	1
8A-	3
8BB-	2
8A-	3
=26	=26
8D	1
8A-	3
8BB-	2
8A-	3
=27	=27
8EE-	1
8E-	3
8E-	2
8E-	3
=28	=28
8E-	1
8r	3
8r	2
8r	3
=29	=29
*-	*-
